X:1
T:Words by Lenz Lorenzi
T:Hugo Wolf (1860-1903)
T:Grablied
T:Copyright © 2009 by the Choral Public Domain Library (http://www.cpdl.org) Edition may be freely distributed, duplicated, performed, or recorded.
T:Copyright © 2009 by the Choral Public Domain Library (http://www.cpdl.org) Edition may be freely distributed, duplicated, performed, or recorded.
T:Copyright © 2009 by the Choral Public Domain Library (http://www.cpdl.org) Edition may be freely distributed, duplicated, performed, or recorded.
Z:Copyright © 2009 by the Choral Public Domain Library (http://www.cpdl.org)
Z:Edition may be freely distributed, duplicated, performed, or recorded.
%%score [ ( 1 2 ) ( 3 4 ) ( 5 6 ) ( 7 8 ) ]
L:1/8
Q:1/4=120
M:1/4
K:F
V:1 treble nm="Soprano" snm="Sop."
V:2 treble 
V:3 treble nm="Contralto" snm="Alto"
V:4 treble 
V:5 treble transpose=-12 nm="Tenor" snm="Ten."
V:6 treble transpose=-12 
V:7 bass nm="Bass" snm="Bs."
V:8 bass 
V:1
!f! A2 |[M:4/4] c2 z!p! F E2 F2 | !^!B2 !^!A2 z4 |!<(!!<(! G^FGA B2 d2!<)!!<)! | %4
w: Wach'|auf, er- wa- che|wie- der,|läch- le uns noch ein- mal|
!>(! (^c4 =c)!>)! z z!p!!p! B | A z AA A3 G | G2 F2 z2!pp! FF | !^!_A3 G!pp! F2 E2 |[M:3/4] F4 z2 | %9
w: an _ doch|nein, schlumm'- re sanft du|Mü- der, kaum ent-|flohn der Er- de|Wahn.|
[M:1/4]!p!"^zart" cc |[M:4/4] c4- ccfe | d4!p! c2 z2 |!p!!p! A3 A c2 B2 | A2 G2 A2 z2 |!p! c8 | %15
w: Schlumm'- re|süß _ im ew'- gen|Frie- den,|En- gel hal- ten|dir die Wacht,|fin-|
 B4 z2!pp!!pp! cc | f4 z2 GG | c6"^Halbchor" B2 | A4 G4 | F8 |] %20
w: de stil- le|Ruh', stil- le|Ruh' in|Gra- bes|Nacht.|
V:2
 A2 |[M:4/4] c2 z F E2 F2 | !^!B2 !^!A2 z4 | G^FGA B2 d2 | (^c4 =c) z z B | A z AA A3 G | %6
 G2 F2 z2 FF | _A3 G F2 E2 |[M:3/4] F4 z2 |[M:1/4] AA |[M:4/4] (B4 A)AAc | B4 c2 z2 | A3 A G2 G2 | %13
 A2 G2 !fermata!E2 z2 | A8 | B4 z2 BB | A4 z2 EE | F6 x2 | A4 G4 | x8 |] %20
V:3
!f! F2 |[M:4/4] F2 z!p! C C2 C2 | !^!E2 !^!F2 z4 |!<(! DDDD G2 F2!<)! | %4
w: Wach'|auf, er- wa- che|wie- der,|läch- le uns noch ein- mal|
!>(! (E4 F)!>)! z z!p!!p! E | F z FF E3 ^C | ^C2 D2 z2!pp! D=C | !^!_C3 C!pp! =C2 C2 | %8
w: an _ doch|nein, schlumm'- re sanft du|Mü- der, kaum ent-|floh'n der Er- de|
[M:3/4] C4 z2 |[M:1/4]!p! FF |[M:4/4] (E4 F)FAc | B4 F2 z2 | F3 F E2 E2 | F2 D2 !fermata!^C2 z2 | %14
w: Wahn|Schlumm'- re|süß _ im ew'- gen|Frie- den,|En- gel hal- ten|dir die Wacht,|
!p! F8 | G4 z2!pp! GG | c4 z2 CC | C6"^Halbchor" D2 | C4 E4 | C8 |] %20
w: fin-|de stil- le|Ruh', stil- le|Ruh' in|Gra- bes|Nacht.|
V:4
 F2 |[M:4/4] F2 z C C2 C2 | !^!E2 !^!F2 z4 | DDDD G2 F2 | (E4 F) z z E | F z FF E3 ^C | %6
 ^C2 D2 z2 D=C | _C3 C =C2 C2 |[M:3/4] C4 z2 |[M:1/4] FF |[M:4/4] (E4 F)FFF | F4 F2 z2 | %12
 D3 D C2 ^C2 | D2 B,2 !fermata!A,2 z2 | F8 | G4 z2 GG | c4 z2 CC | x8 | x8 | x8 |] %20
V:5
!f! c2 |[M:4/4] c2 z!p! c c2 c2 | !^!c2 !^!c2 z4 |!<(! BABd d2 B2!<)! |!>(! A4- A!>)! z z!p!!p! c | %5
w: Wach'|auf, er- wa- che|wie- der,|läch- le uns noch ein- mal|an _ doch|
 c z dd ^c3 E | E2 F2 z2!pp! _AA | !^!F3 F!pp! _A2 G2 |[M:3/4] A4 z2 |[M:1/4] z2 | %10
w: nein, schlumm'- re sanft du|Mü- der, kaum ent-|floh'n der Er- de|Wahn.||
[M:4/4] z2 BB A2 z E |!f! (f3 d) c2 z2 | z8 | z8 |!f! c3 F GABc | _d2 d2 z4 | %16
w: Schlumm'- re süß im|Frie- * den,|||fin- de, den das Glück ge-|mie- den,|
 z2!pp!"^Halbchor" AA B4 | z2 FF A2 F2 | F4 B4 | A8 |] %20
w: stil- le Ruh',|stil- le Ruh' in|Gra- bes|Nacht.|
V:6
 c2 |[M:4/4] c2 z c c2 c2 | !^!c2 !^!c2 z4 | BABd d2 B2 | A4- A z z c | c z dd ^c3 E | %6
 E2 F2 z2 _AA | !^!F3 F _A2 G2 |[M:3/4] A4 x2 |[M:1/4] z2 |[M:4/4] z2 BB A2 z E | f3 d c2 z2 | z8 | %13
 z8 | c3 F GABc | B2 B2 z4 | x8 | x8 | x8 | x8 |] %20
V:7
!f! F,2 |[M:4/4] A,2 z!p! A, B,2 A,2 | !^!G,2 !^!F,2 z4 | z2 z!<(! ^F, G,2 G,2!<)! | %4
w: Wach|auf, er- wa- che|wie- der,|noch ein- mal|
!>(! A,4- A,!>)! z z!p!!p! G, | F, z z2 A,3 A,, | B,,2 B,,2 z2!pp! =B,,C, | %7
w: an _ doch|nein, sanft du|Mü- der, kaum ent-|
 !^!_D,3 D,!pp! C,2 C,2 |[M:3/4] F,4 z2 |[M:1/4] z2 |[M:4/4] z2 G,G, F,2 z F, |!f! B,4 A,2 z2 | %12
w: floh'n der Er- de|Wahn.||Schlumm'- re süß im|Frie- den,|
 z8 | z8 |!f! C3 F, G,A,B,C | G,2 G,2 z4 | z2!pp!"^Halbchor" F,F, E,4 | z2 F,F, F,2 B,,2 | %18
w: ||fin- de, den das Glück ge-|mie- den,|stil- le Ruh',|stil- le Ruh' in|
 C,4 C,4 | F,8 |] %20
w: Gra- bes|Nacht.|
V:8
 F,2 |[M:4/4] A,2 z A, B,2 A,2 | !^!G,2 !^!F,2 z4 | z2 z ^F, G,2 G,2 | A,4- A, z z G, | %5
 F, z z2 A,3 A,, | B,,2 B,,2 z2 =B,,C, | !^!_D,3 D, C,2 C,2 |[M:3/4] F,,4 x2 |[M:1/4] z2 | %10
[M:4/4] z2 G,G, F,2 z F, | B,4 A,2 z2 | z8 | z8 | C3 F, G,A,B,C | E,2 E,2 z4 | x8 | x8 | x8 | x8 |] %20

